X:40
T:Martin Wynne's #2
M:C|
L:1/8
Q:120
C:Martin Wynne
R:Reel (Key of D)
K:D
"D"FBAF "A"E2FE | "Bm"DB,~B,2 DB,A,2 | "Em"B,E~E2 FEDE | "Bm"FABc dcBA |
"D"FBAF "A"E2FE | "Bm"DB,~B,2 DB,A,2 | "Em"B,E~E2 FEDE | "F#m"FBBA "Bm"~B3A :|:
"D"FBAF A2FA | "G"(3Bcd eg "D"fdde | f2af "A"egfe | "D"dfed "Bm"BAFE |
"D"FBAF A2FA | "G"(3Bcd eg "D"fdde | f2af "A"egfe | "Bm"dBAF ~B3A :|]
